!!!OTL@@DE: Gebet w&auml;hrend der Schlacht
!!!COM: Himmel, Friedrich Heinrich
!!!ODT: 1813
!!!OMD: Langsam und mit W&uuml;rde
!!!LYR: K&ouml;rner Theodor
!!!LDT: 1813
!!!OCL: Erk, Ludwig
!!!GCO: Deutscher Liederschatz, Band 1
**kern	**kern	**kern
*staff3	*staff2	*staff1
*Ipiano	*Ipiano	*Ivox
*>[A,A,B]	*>[A,A,B]	*>[A,A,B]
*>norep[A,B]	*>norep[A,B]	*>norep[A,B]
*>A	*>A	*>A
=1-	=1-	=1-
*clefF4	*clefG2	*clefG2
*k[b-e-a-]	*k[b-e-a-]	*k[b-e-a-]
*E-:	*E-:	*E-:
*met(C)	*met(C)	*met(C)
*M4/4	*M4/4	*M4/4
*MM72	*MM72	*MM72
2EE-/ 2E-/	2B-/ 2e-/ (2g/	4g/
.	.	8g/
.	.	8g/
2BBB-/ 2BB-/	2A-/ 2d/ 2f/	4.b-\
.	.	8b-\
=2	=2	=2
2.CC/ &(2.C/&)	2.G/ 2.c/ 2.e-/)	2.e-/
4r	4r	4r
=3	=3	=3
32GGG/LLL	4Bn/ 4d/ 4g/	4g/
32GG/	.	.
32GGG/	.	.
32GG/	.	.
32GGG/	.	.
32GG/	.	.
32GGG/	.	.
32GG/	.	.
32GGG/	8.B/ 8.d/ 8.g/L	8.g/
32GG/	.	.
32GGG/	.	.
32GG/	.	.
32GGG/	.	.
32GG/	.	.
32GGG/	16B/ 16d/ 16g/Jk	16g/
32GG/JJJ	.	.
32GGG/LLL	4c/ 4e-/ 4g/	4g/
32GG/	.	.
32GGG/	.	.
32GG/	.	.
32GGG/	.	.
32GG/	.	.
32GGG/	.	.
32GG/	.	.
32GGG/	8.c/ 8.e-/ 8.g/L	8.g/
32GG/	.	.
32GGG/	.	.
32GG/	.	.
32GGG/	.	.
32GG/	.	.
32GGG/	16c/ 16e-/ 16g/Jk	16g/
32GG/JJJ	.	.
=4	=4	=4
32GGG/LLL	4d/ 4f/ 4g/	4g/
32GG/	.	.
32GGG/	.	.
32GG/	.	.
32GGG/	.	.
32GG/	.	.
32GGG/	.	.
32GG/	.	.
32GGG/	8.d/ 8.f/ 8.an/L	8.an/
32GG/	.	.
32GGG/	.	.
32GG/	.	.
32GGG/	.	.
32GG/	.	.
32GGG/	16d/ 16f/ 16g/ 16bn/Jk	16bn\
32GG/JJJ	.	.
32CC/LLL	8e-/ 8g/ 8cc/L	8cc\
32C/	.	.
32CC/	.	.
32C/	.	.
32CC/	8c/J	8c/
32C/	.	.
32CC/	.	.
32C/	.	.
32CC/	4r	4r
32C/	.	.
32CC/	.	.
32C/	.	.
32CC/	.	.
32C/	.	.
32CC/	.	.
32C/JJJ	.	.
=5	=5	=5
32BBB-/LLL	4d/ 4f/ 4b-/	4b-\
32BB-/	.	.
32BBB-/	.	.
32BB-/	.	.
32BBB-/	.	.
32BB-/	.	.
32BBB-/	.	.
32BB-/	.	.
32BBB-/	8.d/ 8.f/ 8.b-/L	8.b-\
32BB-/	.	.
32BBB-/	.	.
32BB-/	.	.
32BBB-/	.	.
32BB-/	.	.
32BBB-/	16d/ 16f/ 16b-/Jk	16b-\
32BB-/JJJ	.	.
32BBB-/LLL	4e-/ 4g/ 4b-/	4b-\
32BB-/	.	.
32BBB-/	.	.
32BB-/	.	.
32BBB-/	.	.
32BB-/	.	.
32BBB-/	.	.
32BB-/	.	.
32BBB-/	8.e-/ 8.g/ 8.b-/L	8.b-\
32BB-/	.	.
32BBB-/	.	.
32BB-/	.	.
32BBB-/	.	.
32BB-/	.	.
32BBB-/	16e-/ 16g/ 16b-/Jk	16b-\
32BB-/JJJ	.	.
=6	=6	=6
32BBB-/LLL	4f/ 4a-/ 4b-/	(4b-/
32BB-/	.	.
32BBB-/	.	.
32BB-/	.	.
32BBB-/	.	.
32BB-/	.	.
32BBB-/	.	.
32BB-/	.	.
32BBB-/	8.f/ 8.a-/ 8.cc/L	8.cc/)
32BB-/	.	.
32BBB-/	.	.
32BB-/	.	.
32BBB-/	.	.
32BB-/	.	.
32BBB-/	16f/ 16a-/ 16b-/ 16dd/Jk	16dd\
32BB-/JJJ	.	.
32EE-/LLL	8g/ 8b-/ 8ee-/L	8ee-\
32E-/	.	.
32EE-/	.	.
32E-/	.	.
32EE-/	8e-/J	8e-/
32E-/	.	.
32EE-/	.	.
32E-/	.	.
32EE-/	4r	4r
32E-/	.	.
32EE-/	.	.
32E-/	.	.
32EE-/	.	.
32E-/	.	.
32EE-/	.	.
32E-/JJJ	.	.
=7	=7	=7
2EE-/	2d-/ 2e-/ 2g/	4g/
.	.	8.g/
.	.	16g/
2AAA-/ 2AA-/	2c/ 2e-/ 2a-/	4a-/
.	.	8a-/
.	.	8a-/
=8	=8	=8
(2FF/	2c/ 2e-/ 2f/ (2an/	4.an/
.	.	8a/
4BBB-/) &(4BB-/&)	4dn/ 4f/ &(4b-/&))	4b-\
4r	4r	4r
=9	=9	=9
1BB- [1B-	2e-/ (2g/	4ee-^\
.	.	8.g/
.	.	16g/
.	2d/ 2f/ 2a-/	4.a-^/
.	.	8d/
=10	=10	=10
*^	*^	*
4B-/]	4E-\	&(4e-\&)	4g/)	2.e-/
*v	*v	*	*	*
*	*v	*v	*
*clefG2	*	*
4e-/ (4g/	8.b-\ (8.gg\L	.
.	16b-\ 16gg\Jk	.
*^	*	*
4f/	2B-\	4.dd\ 4.aa-\	.
4a-/)	.	.	4r
.	.	8b-\ 8dd\)	.
*v	*v	*	*
=11	=11	=11
4e-/ 4g/	4b-\ 4ee-\	1r
*clefF4	*	*
4E-\ 4B-\	8.e-/ (8.g/L	.
.	16e-/ 16g/Jk	.
*^	*	*
(4B-/	2BB-\	4.d/ 4.a-/	.
4A-/)	.	.	.
.	.	8B-/ 8d/)	.
*v	*v	*	*
=12:|!	=12:|!	=12:|!
*>B	*>B	*>B
4E-\ 4G\	4B-/ 4e-/	1r
4EE-/ 4E-/	4B-/ 4e-/ 4g/	.
2EE-/ 2E-/	2G/ 2B-/ 2e-/	.
==	==	==
*-	*-	*-
!!!ENC: Craig Stuart Sapp
!!!END: 2004/06/28/
!!!EFL: 162/651
